X: 627
T: Growling Old Man and Old Woman
B: jims roots
M:2/4
R: Reel
Q: 1/4=100
K:A
V:1 
A2 |:"A"A,2A,C EA,CE | "G"D=G,B,D =GDB,G, | "A"A,2A,C EA,CE |
"G"DB,=G,B, "A"A,2A,=G, |"A"A,2A,C EA,CE | "G"D=G,B,D =GDB,G, |
"A"A,2A,C EA,CE |[1 "G"DB,=G,B, "A"A,2A2 :|[2 "G"DB,=G,B, "A"A,2cd ||
|: "A"efed cdef | "G"=ged=c B=GG2 | "A"efed cdec |
"E"eaaa "A"a2ef | "A"=gfed cdef | "G"=ged=c BGAB |
"Am"=cAB=G AGED | [1 "G"=GE"E"DB, "A"A,2cd:|[2 "G"=GE"E"DB, "A"A,2A,=G, |]
% abcbook-tune_id 6298c25de86453f12d780920


% abcbook-boost 0
% abcbook-tablature 
% abcbook-transpose 
% abcbook-lastupdated 1654178398528
% abcbook-soundfonts 
% abcbook-repeats 1


